X:297
T: Yiwang yuxia yiwangliang
N: C1794
O: China,Jiangxi Boyang
S: IV, 211]
R: Shange, Yge]
M: 2/4
L: 1/16
K: Bb
f2f4g2 | b2fdc4- | c6fd | d2dcb4 | g2f6- | f8 |
b2bdcdb2 | g6b2 | f2b4gb | g2f6 |
dcd4f2 | gfg4fd | cdb4g2 | g8 |
b2bdcdb2- | b6g2 | d2b4dg | f8- | f8

@@@ Tune index: 6852
